X: 123
T: Ktokolwiek mocnie ufa Panu swemu,
C: Mikołaj Gomółka
%%abc-version 2.0
%%abcx-abcm2ps-target-version 5.9.1 (29 Sep 2008)
%%abc-creator hum2abc beta
%%abcx-conversion-date 2021/10/04 07:59:09
%%abc-edited-by Marta Lawrence
%%abcx-initial-encoding-date 2020-02-21
%%humdrum-veritas 3572029630
%%humdrum-veritas-data 519646368
%%linebreak <none>
%%barnumbers 0
L: 1/4
M: C|
N: Derived from pl-wn--sd-xvi-qu-273--125_gomolka-mikolaj--ktokolwiek-mocnie-ufa-panu-swemu.krn
%%staves [1 2 3 4]
V: 1 clef=treble
V: 2
V: 3 clef=alto
V: 4
K: Bb
[V:1] c4c2c2 [|] 
[V:2] C4A,3B, [|] 
[V:3] F4F2F4 [|] 
[V:4] F,4F,3G, [|] 
[V:1] c4B2AG [|] 
[V:2] CD=EFG2G2 [|] 
[V:3] C2D2=E2 [|] 
[V:4] A,2A,2G,2G,2 [|] 
[V:1] ABc2c2B2 [|] 
[V:2] C2G2A2GF [|] 
[V:3] F2>=E2D2D2 [|] 
[V:4] F,2C,2F,2G,2 [|] 
[V:1] c2c2c4 [|] 
[V:2] =E2A2A4 [|] 
[V:3] C2F2F6 [|] 
[V:4] A,2F,2F,4 [|] 
[V:1] d6f2 [|] 
[V:2] A6B2 [|] 
[V:3] F2D4 [|] 
[V:4] D,6B,,2 [|] 
[V:1] =e2f2e3d [|] 
[V:2] G2ABc2c4 [|] 
[V:3] =E2CDEFG3 [|] 
[V:4] C,2F,2C2C4 [|] 
[V:1] c2f=ed2cB [|] 
[V:2] c2B2AG [|] 
[V:3] FF4=E2 [|] 
[V:4] A,2B,2C2 [|] 
[V:1] AB2<c2BA2 [|] 
[V:2] A2G2G2D=E [|] 
[V:3] F2=E2E2F2 [|] 
[V:4] F,2C,2C,2D,2 [|] 
[V:1] B2FGABc2 [|] 
[V:2] F4F2F3 [|] 
[V:3] D4C2F,G, [|] 
[V:4] B,,C,D,=E,F,G,A,B, [|] 
[V:1] c2c2c2B2 [|] 
[V:2] GA4GF [|] 
[V:3] A,B,2<C2A,D4 [|] 
[V:4] C2F,4G,2 [|] 
[V:1] A2=e2fedc [|] 
[V:2] =EDAG2<F2E [|] 
[V:3] ^C2D2F3 [|] 
[V:4] A,2A,,2D,2D,3 [|] 
[V:1] d6d2 [|] 
[V:2] D=EF2DEFG [|] 
[V:3] =ED=CB,A,B,2 [|] 
[V:4] C,2<B,,2C,D,=E, [|] 
[V:1] c2f2>=e2d2 [|] 
[V:2] AGF=EDEFD [|] 
[V:3] A,2D2>C2B,A, [|] 
[V:4] F,=E,D,C,B,,4 [|] 
[V:1] c2B2c3B [|] 
[V:2] =E2F4E2 [|] 
[V:3] G,2F,2G,4 [|] 
[V:4] C,2D,2C,4 [|] 
[V:1] A32 |]  
[V:2] F32 |]  
[V:3] F,32 |]  
[V:4] F,32 |]  


